src/img/first-screen/clouds.svg

<svg width="1600" height="147" viewBox="0 0 1600 147" fill="none" xmlns="http://www.w3.org/2000/svg">
<g clip-path="url(#cloud1)">
<path opacity="0.14" d="M702.956 34.423C695.669 30.183 686.946 28.9498 678.535 29.4522C670.124 29.9546 661.902 32.1013 653.772 34.2555C654.767 32.1139 655.04 29.7067 654.551 27.3962C654.061 25.0857 652.836 22.9968 651.06 21.4441C649.214 19.9766 646.941 19.1504 644.585 19.09C642.229 19.0296 639.917 19.7383 637.999 21.1091C634.503 12.1799 629.23 2.51232 619.945 0.388497C612.97 -1.20247 605.562 2.28395 600.821 7.61255C596.079 12.9411 593.587 19.9444 591.908 26.9021C589.689 24.8783 586.954 23.5091 584.007 22.946C581.059 22.383 578.014 22.648 575.207 23.7119C572.401 24.7757 569.943 26.5968 568.106 28.9736C566.268 31.3504 565.123 34.1902 564.797 37.1787C560.641 33.1898 555.756 29.4217 550.072 28.7975C542.915 28.0135 536.98 33.6466 536.107 40.5204C535.127 48.2621 541.182 55.9353 547.702 59.2847C548.195 59.5435 548.697 59.7795 549.221 60.0003H700.646C703.473 58.9964 706.361 58.1727 709.292 57.5339C709.795 57.0916 710.261 56.6078 710.683 56.0876C713.426 52.7001 713.616 47.7141 711.868 43.6948C710.121 39.6755 706.724 36.6153 702.956 34.423Z" fill="url(#cloud1content)"/>
</g>
<g clip-path="url(#cloud3)">
<path opacity="0.14" d="M1186.84 51.2121C1183.09 49.092 1178.61 48.4755 1174.28 48.7267C1169.96 48.9779 1165.73 50.0512 1161.55 51.1283C1162.06 50.0575 1162.2 48.8539 1161.95 47.6987C1161.7 46.5434 1161.07 45.499 1160.16 44.7226C1159.21 43.9889 1158.04 43.5758 1156.83 43.5456C1155.62 43.5154 1154.43 43.8697 1153.44 44.5551C1151.64 40.0905 1148.93 35.2567 1144.16 34.1948C1140.57 33.3993 1136.76 35.1425 1134.33 37.8068C1131.89 40.4711 1130.61 43.9728 1129.74 47.4516C1128.6 46.4397 1127.2 45.7551 1125.68 45.4736C1124.17 45.192 1122.6 45.3246 1121.16 45.8565C1119.72 46.3884 1118.45 47.299 1117.51 48.4874C1116.56 49.6758 1115.97 51.0957 1115.81 52.5899C1113.67 50.5955 1111.16 48.7114 1108.24 48.3993C1104.56 48.0073 1101.51 50.8238 1101.06 54.2608C1100.55 58.1316 1103.67 61.9682 1107.02 63.6429C1107.27 63.7723 1107.53 63.8903 1107.8 64.0007H1185.65C1187.1 63.4988 1188.59 63.0869 1190.09 62.7675C1190.35 62.5464 1190.59 62.3045 1190.81 62.0443C1192.22 60.3506 1192.32 57.8576 1191.42 55.8479C1190.52 53.8383 1188.77 52.3082 1186.84 51.2121Z" fill="url(#cloud3content)"/>
</g>

<g clip-path="url(#cloud2)">
<path opacity="0.14" d="M1605.42 108.013C1597.02 103.207 1586.97 101.81 1577.28 102.379C1567.58 102.948 1558.11 105.381 1548.74 107.823C1549.88 105.396 1550.2 102.667 1549.63 100.049C1549.07 97.4303 1547.66 95.0629 1545.61 93.3031C1543.48 91.6401 1540.86 90.7037 1538.15 90.6352C1535.43 90.5667 1532.77 91.3699 1530.56 92.9235C1526.53 82.8038 1520.45 71.8471 1509.75 69.4401C1501.71 67.637 1493.17 71.5883 1487.71 77.6274C1482.24 83.6665 1479.37 91.6036 1477.44 99.4889C1474.88 97.1952 1471.73 95.6435 1468.33 95.0053C1464.93 94.3672 1461.42 94.6676 1458.19 95.8733C1454.95 97.079 1452.12 99.1429 1450 101.837C1447.89 104.53 1446.57 107.749 1446.19 111.136C1441.4 106.615 1435.77 102.344 1429.22 101.637C1420.97 100.748 1414.13 107.133 1413.12 114.923C1411.99 123.697 1418.97 132.393 1426.49 136.189C1427.06 136.483 1427.63 136.75 1428.24 137H1602.76C1606.02 135.862 1609.35 134.929 1612.73 134.205C1613.31 133.704 1613.84 133.155 1614.33 132.566C1617.49 128.727 1617.71 123.076 1615.7 118.521C1613.68 113.965 1609.77 110.497 1605.42 108.013Z" fill="url(#cloud4content)"/>
</g>
<g clip-path="url(#cloud4)">
<path opacity="0.14" d="M1040.76 77.228C1036.23 74.6133 1030.81 73.8528 1025.58 74.1626C1020.35 74.4724 1015.25 75.7962 1010.19 77.1247C1010.81 75.804 1010.98 74.3196 1010.68 72.8948C1010.37 71.4699 1009.61 70.1818 1008.51 69.2243C1007.36 68.3194 1005.95 67.8099 1004.48 67.7726C1003.02 67.7354 1001.58 68.1724 1000.39 69.0177C998.218 63.5114 994.94 57.5497 989.17 56.24C984.835 55.2589 980.231 57.4089 977.285 60.6948C974.338 63.9808 972.789 68.2995 971.746 72.59C970.367 71.342 968.667 70.4977 966.836 70.1505C965.004 69.8033 963.111 69.9667 961.367 70.6227C959.623 71.2788 958.095 72.4018 956.953 73.8675C955.812 75.3332 955.1 77.0844 954.897 78.9273C952.315 76.4675 949.278 74.1438 945.746 73.7589C941.298 73.2754 937.61 76.7491 937.067 80.988C936.458 85.7621 940.221 90.4939 944.273 92.5593C944.58 92.7189 944.891 92.8645 945.217 93.0006H1039.32C1041.08 92.3816 1042.87 91.8736 1044.7 91.4797C1045.01 91.2069 1045.3 90.9086 1045.56 90.5878C1047.27 88.4988 1047.38 85.4241 1046.3 82.9455C1045.21 80.467 1043.1 78.5799 1040.76 77.228Z" fill="url(#cloud2content)"/>
</g>
<defs>
<linearGradient id="cloud1content" x1="536" y1="30.0003" x2="713" y2="30.0003" gradientUnits="userSpaceOnUse">
<stop stop-color="#81CCE3"/>
<stop offset="0.23" stop-color="#68C1D7"/>
<stop offset="0.72" stop-color="#27A4B9"/>
<stop offset="1" stop-color="#0093A7"/>
</linearGradient>
<linearGradient id="cloud3content" x1="1101" y1="49.0007" x2="1192" y2="49.0007" gradientUnits="userSpaceOnUse">
<stop stop-color="#81CCE3"/>
<stop offset="0.23" stop-color="#68C1D7"/>
<stop offset="0.72" stop-color="#27A4B9"/>
<stop offset="1" stop-color="#0093A7"/>
</linearGradient>

<linearGradient id="cloud4content" x1="1413" y1="103" x2="1617" y2="103" gradientUnits="userSpaceOnUse">
<stop stop-color="#81CCE3"/>
<stop offset="0.23" stop-color="#68C1D7"/>
<stop offset="0.72" stop-color="#27A4B9"/>
<stop offset="1" stop-color="#0093A7"/>
</linearGradient>
<linearGradient id="cloud2content" x1="937.001" y1="74.5006" x2="1047" y2="74.5006" gradientUnits="userSpaceOnUse">
<stop stop-color="#81CCE3"/>
<stop offset="0.23" stop-color="#68C1D7"/>
<stop offset="0.72" stop-color="#27A4B9"/>
<stop offset="1" stop-color="#0093A7"/>
</linearGradient>

</defs>
</svg>

<svg xmlns="http://www.w3.org/2000/svg" width="1600" height="147" fill="none" viewBox="0 0 1600 147"><g clip-path="url(#cloud1)"><path d="M702.956 34.423c-7.287-4.24-16.01-5.473-24.421-4.97-8.41.502-16.633 2.648-24.763 4.802a10.916 10.916 0 0 0-2.712-12.81 10.852 10.852 0 0 0-13.06-.336c-3.497-8.93-8.77-18.597-18.055-20.72-6.975-1.597-14.383 1.89-19.124 7.22-4.742 5.326-7.234 12.33-8.913 19.288a16.233 16.233 0 0 0-16.701-3.19 16.261 16.261 0 0 0-7.1 5.26 16.302 16.302 0 0 0-3.31 8.207c-4.156-3.99-9.041-7.757-14.725-8.382-7.157-.784-13.092 4.85-13.965 11.723-.98 7.742 5.075 15.415 11.595 18.765.493.26.995.495 1.52.715h151.424a71.05 71.05 0 0 1 8.646-2.466 11.87 11.87 0 0 0 1.39-1.446c2.744-3.388 2.934-8.374 1.186-12.393-1.747-4.02-5.144-7.08-8.912-9.272Z" fill="url(#a)" opacity=".14"/></g><g clip-path="url(#cloud3)"><path d="M1186.84 51.212c-3.75-2.12-8.23-2.737-12.56-2.485-4.32.25-8.55 1.324-12.73 2.401a5.34 5.34 0 0 0 .4-3.43 5.427 5.427 0 0 0-1.79-2.975 5.711 5.711 0 0 0-6.72-.167c-1.8-4.465-4.51-9.3-9.28-10.361-3.59-.796-7.4.947-9.83 3.612-2.44 2.664-3.72 6.166-4.59 9.645a8.415 8.415 0 0 0-4.06-1.978 8.554 8.554 0 0 0-4.52.383 8.335 8.335 0 0 0-3.65 2.63 7.92 7.92 0 0 0-1.7 4.103c-2.14-1.995-4.65-3.879-7.57-4.19-3.68-.393-6.73 2.424-7.18 5.86-.51 3.872 2.61 7.708 5.96 9.383.25.13.51.247.78.358h77.85a37.54 37.54 0 0 1 4.44-1.234c.26-.22.5-.463.72-.723 1.41-1.693 1.51-4.186.61-6.196s-2.65-3.54-4.58-4.636Z" fill="url(#b)" opacity=".14"/></g><g clip-path="url(#cloud2)"><path d="M1605.42 108.013c-8.4-4.806-18.45-6.203-28.14-5.634-9.7.569-19.17 3.002-28.54 5.444a12.184 12.184 0 0 0 .89-7.774 12.276 12.276 0 0 0-4.02-6.746 12.65 12.65 0 0 0-7.46-2.668 12.64 12.64 0 0 0-7.59 2.288c-4.03-10.12-10.11-21.076-20.81-23.483-8.04-1.803-16.58 2.148-22.04 8.187-5.47 6.04-8.34 13.977-10.27 21.862a18.86 18.86 0 0 0-9.11-4.484 19 19 0 0 0-10.14.868 18.72 18.72 0 0 0-8.19 5.964 18.41 18.41 0 0 0-3.81 9.299c-4.79-4.521-10.42-8.792-16.97-9.499-8.25-.889-15.09 5.496-16.1 13.286-1.13 8.774 5.85 17.47 13.37 21.266.57.294 1.14.561 1.75.811h174.52a82.994 82.994 0 0 1 9.97-2.795c.58-.501 1.11-1.05 1.6-1.64 3.16-3.838 3.38-9.49 1.37-14.044-2.02-4.556-5.93-8.024-10.28-10.508Z" fill="url(#c)" opacity=".14"/></g><g clip-path="url(#cloud4)"><path d="M1040.76 77.228c-4.53-2.615-9.95-3.375-15.18-3.065-5.23.31-10.33 1.633-15.39 2.962.62-1.32.79-2.805.49-4.23a6.775 6.775 0 0 0-2.17-3.67 6.787 6.787 0 0 0-8.12-.207c-2.172-5.507-5.45-11.468-11.22-12.778-4.335-.981-8.939 1.169-11.885 4.455-2.947 3.286-4.496 7.604-5.539 11.895a10.13 10.13 0 0 0-4.91-2.44 10.163 10.163 0 0 0-5.47.473 10.105 10.105 0 0 0-4.413 3.245 10.024 10.024 0 0 0-2.056 5.06c-2.582-2.46-5.62-4.784-9.151-5.17-4.448-.483-8.136 2.991-8.679 7.23-.61 4.774 3.154 9.506 7.206 11.571.307.16.618.306.944.442h94.103a44.258 44.258 0 0 1 5.38-1.515c.31-.273.6-.57.86-.892 1.71-2.09 1.82-5.164.74-7.642-1.09-2.479-3.2-4.366-5.54-5.718Z" fill="url(#d)" opacity=".14"/></g><defs><linearGradient id="a" x1="536" x2="713" y1="30" y2="30" gradientUnits="userSpaceOnUse"><stop stop-color="#81CCE3"/><stop offset=".23" stop-color="#68C1D7"/><stop offset=".72" stop-color="#27A4B9"/><stop offset="1" stop-color="#0093A7"/></linearGradient><linearGradient id="b" x1="1101" x2="1192" y1="49.001" y2="49.001" gradientUnits="userSpaceOnUse"><stop stop-color="#81CCE3"/><stop offset=".23" stop-color="#68C1D7"/><stop offset=".72" stop-color="#27A4B9"/><stop offset="1" stop-color="#0093A7"/></linearGradient><linearGradient id="c" x1="1413" x2="1617" y1="103" y2="103" gradientUnits="userSpaceOnUse"><stop stop-color="#81CCE3"/><stop offset=".23" stop-color="#68C1D7"/><stop offset=".72" stop-color="#27A4B9"/><stop offset="1" stop-color="#0093A7"/></linearGradient><linearGradient id="d" x1="937.001" x2="1047" y1="74.501" y2="74.501" gradientUnits="userSpaceOnUse"><stop stop-color="#81CCE3"/><stop offset=".23" stop-color="#68C1D7"/><stop offset=".72" stop-color="#27A4B9"/><stop offset="1" stop-color="#0093A7"/></linearGradient></defs></svg>
